MonoIcons/scalable/status/network-cellular-acquiring-symbolic.svg

<?xml version="1.0" encoding="UTF-8"?>
<svg height="16px" viewBox="0 0 16 16" width="16px" xmlns="http://www.w3.org/2000/svg">
    <path d="m 13 1 c -0.554688 0 -1 0.445312 -1 1 v 3 h 1 c 0.769531 0 1.46875 0.289062 2 0.765625 v -3.765625 c 0 -0.554688 -0.445312 -1 -1 -1 z m -4 3 c -0.554688 0 -1 0.445312 -1 1 h 3 c 0 -0.554688 -0.445312 -1 -1 -1 z m -8.210938 6.023438 c -0.453124 0.097656 -0.789062 0.496093 -0.789062 0.976562 v 3 c 0 0.554688 0.445312 1 1 1 h 1 c 0.554688 0 1 -0.445312 1 -1 v -3 c -0.878906 0 -1.664062 -0.378906 -2.210938 -0.976562 z m 14.210938 0.210937 c -0.53125 0.476563 -1.230469 0.765625 -2 0.765625 h -1 v 3 c 0 0.554688 0.445312 1 1 1 h 1 c 0.554688 0 1 -0.445312 1 -1 z m -11 0.765625 v 3 c 0 0.554688 0.445312 1 1 1 h 1 c 0.554688 0 1 -0.445312 1 -1 v -3 z m 4 0 v 3 c 0 0.554688 0.445312 1 1 1 h 1 c 0.554688 0 1 -0.445312 1 -1 v -3 z m 0 0" fill="#2e3434" fill-opacity="0.34902"/>
    <path d="m 3 6 c -1.105469 0 -2 0.894531 -2 2 s 0.894531 2 2 2 s 2 -0.894531 2 -2 s -0.894531 -2 -2 -2 z m 5 0 c -1.105469 0 -2 0.894531 -2 2 s 0.894531 2 2 2 s 2 -0.894531 2 -2 s -0.894531 -2 -2 -2 z m 5 0 c -1.105469 0 -2 0.894531 -2 2 s 0.894531 2 2 2 s 2 -0.894531 2 -2 s -0.894531 -2 -2 -2 z m 0 0" fill="#2e3436"/>
</svg>

<svg width="16" height="16" viewBox="0 0 16 16" fill="none" xmlns="http://www.w3.org/2000/svg">
<path d="M13 1C12.4453 1 12 1.44531 12 2V5H13C13.7695 5 14.4688 5.28906 15 5.76563V2C15 1.44531 14.5547 1 14 1H13ZM9 4C8.44531 4 8 4.44531 8 5H11C11 4.44531 10.5547 4 10 4H9ZM0.789062 10.0234C0.335938 10.1211 0 10.5195 0 11V14C0 14.5547 0.445312 15 1 15H2C2.55469 15 3 14.5547 3 14V11C2.12109 11 1.33594 10.6211 0.789062 10.0234ZM15 10.2344C14.4688 10.7109 13.7695 11 13 11H12V14C12 14.5547 12.4453 15 13 15H14C14.5547 15 15 14.5547 15 14V10.2344ZM4 11V14C4 14.5547 4.44531 15 5 15H6C6.55469 15 7 14.5547 7 14V11H4ZM8 11V14C8 14.5547 8.44531 15 9 15H10C10.5547 15 11 14.5547 11 14V11H8Z" fill="#2E3436" fill-opacity="0.5"/>
<path d="M3 6C1.89453 6 1 6.89453 1 8C1 9.10547 1.89453 10 3 10C4.10547 10 5 9.10547 5 8C5 6.89453 4.10547 6 3 6ZM8 6C6.89453 6 6 6.89453 6 8C6 9.10547 6.89453 10 8 10C9.10547 10 10 9.10547 10 8C10 6.89453 9.10547 6 8 6ZM13 6C11.8945 6 11 6.89453 11 8C11 9.10547 11.8945 10 13 10C14.1055 10 15 9.10547 15 8C15 6.89453 14.1055 6 13 6Z" fill="#2E3436"/>
</svg>
